TEfficiency/2d.svg

<svg xmlns="http://www.w3.org/2000/svg" viewBox="0 0 1200 800" preserveAspectRatio="none" width="1200" height="800">
 <path d="M0,0H1200V800H0Z" style="fill: white;"></path>
 <g>
  <g transform="translate(120,80)">
   <path d="M0,0H960V640H0Z" style="fill: white; stroke: black; stroke-width: 1;"></path>
   <svg x="0" y="0" overflow="hidden" width="960" height="640" viewBox="0 0 960 640">
    <g>
     <path fill="#263ea8" d="M0,0h96v128h-96zM0,512h96v128h-96zM96,0h96v128h-96zm96,0h96v128h-96zm0,512h96v128h-96zM768,0h96v128h-96zm0,512h96v128h-96zM864,0h96v128h-96zm0,512h96v128h-96z"></path>
     <path fill="#1652cd" d="M96,512h96v128h-96zM384,0h96v128h-96zm96,0h96v128h-96zm0,512h96v128h-96zm96,0h96v128h-96zM672,0h96v128h-96zm0,512h96v128h-96z"></path>
     <path fill="#1064dc" d="M288,0h96v128h-96zm0,512h96v128h-96zm96,0h96v128h-96zM576,0h96v128h-96z"></path>
     <path fill="#1481d6" d="M0,128h96v128h-96z"></path>
     <path fill="#0e8fd1" d="M0,384h96v128h-96zM864,128h96v128h-96z"></path>
     <path fill="#099dcc" d="M96,128h96v128h-96zm0,256h96v128h-96zm768,0h96v128h-96z"></path>
     <path fill="#0da7c3" d="M768,384h96v128h-96z"></path>
     <path fill="#1eafb3" d="M192,384h96v128h-96zM768,128h96v128h-96z"></path>
     <path fill="#2eb7a4" d="M0,256h96v128h-96z"></path>
     <path fill="#52ba92" d="M672,128h96v128h-96zm0,256h96v128h-96z"></path>
     <path fill="#74bd81" d="M192,128h96v128h-96zm96,0h96v128h-96zm96,0h96v128h-96zm0,256h96v128h-96zM480,128h96v128h-96zm96,0h96v128h-96zm0,256h96v128h-96zM864,256h96v128h-96z"></path>
     <path fill="#95be71" d="M288,384h96v128h-96zm192,0h96v128h-96zM768,256h96v128h-96z"></path>
     <path fill="#b3bd65" d="M96,256h96v128h-96z"></path>
     <path fill="#f4c63b" d="M192,256h96v128h-96zm480,0h96v128h-96z"></path>
     <path fill="#fdd22b" d="M576,256h96v128h-96z"></path>
     <path fill="#fbe61d" d="M288,256h96v128h-96z"></path>
     <path fill="#f9f90f" d="M384,256h96v128h-96zm96,0h96v128h-96z"></path>
    </g>
   </svg>
   <g>
    <g transform="translate(0,640)">
     <path d="M0,0h960M0,-24v24m19,-12v12m19,-12v12m20,-12v12m19,-12v12m19,-24v24m19,-12v12m19,-12v12m20,-12v12m19,-12v12m19,-24v24m19,-12v12m19,-12v12m20,-12v12m19,-12v12m19,-24v24m19,-12v12m19,-12v12m20,-12v12m19,-12v12m19,-24v24m19,-12v12m19,-12v12m20,-12v12m19,-12v12m19,-24v24m19,-12v12m19,-12v12m20,-12v12m19,-12v12m19,-24v24m19,-12v12m19,-12v12m20,-12v12m19,-12v12m19,-24v24m19,-12v12m19,-12v12m20,-12v12m19,-12v12m19,-24v24m19,-12v12m19,-12v12m20,-12v12m19,-12v12m19,-24v24m19,-12v12m19,-12v12m20,-12v12m19,-12v12m19,-24v24" style="stroke: black; stroke-width: 1;"></path>
     <g font-family="Arial" font-size="28" space="preserve" fill="black" text-anchor="middle">
      <text dy=".8em" transform="translate(0,6)">
       0
      </text>
      <text dy=".8em" transform="translate(96,6)">
       1
      </text>
      <text dy=".8em" transform="translate(192,6)">
       2
      </text>
      <text dy=".8em" transform="translate(288,6)">
       3
      </text>
      <text dy=".8em" transform="translate(384,6)">
       4
      </text>
      <text dy=".8em" transform="translate(480,6)">
       5
      </text>
      <text dy=".8em" transform="translate(576,6)">
       6
      </text>
      <text dy=".8em" transform="translate(672,6)">
       7
      </text>
      <text dy=".8em" transform="translate(768,6)">
       8
      </text>
      <text dy=".8em" transform="translate(864,6)">
       9
      </text>
      <text dy=".8em" transform="translate(960,6)">
       10
      </text>
     </g>
     <g font-family="Arial" font-size="28" space="preserve" transform="translate(960,45)">
      <text fill="black" text-anchor="end" dy=".4em">
       x
      </text>
     </g>
    </g>
    <g>
     <path d="M0,0v640M36,640h-36m18,-13h-18m18,-13h-18m18,-12h-18m18,-13h-18m36,-13h-36m18,-13h-18m18,-13h-18m18,-12h-18m18,-13h-18m36,-13h-36m18,-13h-18m18,-13h-18m18,-12h-18m18,-13h-18m36,-13h-36m18,-13h-18m18,-13h-18m18,-12h-18m18,-13h-18m36,-13h-36m18,-13h-18m18,-13h-18m18,-12h-18m18,-13h-18m36,-13h-36m18,-13h-18m18,-13h-18m18,-12h-18m18,-13h-18m36,-13h-36m18,-13h-18m18,-13h-18m18,-12h-18m18,-13h-18m36,-13h-36m18,-13h-18m18,-13h-18m18,-12h-18m18,-13h-18m36,-13h-36m18,-13h-18m18,-13h-18m18,-12h-18m18,-13h-18m36,-13h-36m18,-13h-18m18,-13h-18m18,-12h-18m18,-13h-18m36,-13h-36" style="stroke: black; stroke-width: 1;"></path>
     <g font-family="Arial" font-size="28" space="preserve" fill="black" text-anchor="end">
      <text dy=".4em" transform="translate(-4,640)">
       0
      </text>
      <text dy=".4em" transform="translate(-4,576)">
       0.5
      </text>
      <text dy=".4em" transform="translate(-4,512)">
       1
      </text>
      <text dy=".4em" transform="translate(-4,448)">
       1.5
      </text>
      <text dy=".4em" transform="translate(-4,384)">
       2
      </text>
      <text dy=".4em" transform="translate(-4,320)">
       2.5
      </text>
      <text dy=".4em" transform="translate(-4,256)">
       3
      </text>
      <text dy=".4em" transform="translate(-4,192)">
       3.5
      </text>
      <text dy=".4em" transform="translate(-4,128)">
       4
      </text>
      <text dy=".4em" transform="translate(-4,64)">
       4.5
      </text>
      <text dy=".4em" transform="translate(-4)">
       5
      </text>
     </g>
     <g font-family="Arial" font-size="28" space="preserve" transform="translate(-72,0)">
      <text fill="black" text-anchor="end" dy=".4em" transform=" rotate(270)">
       y
      </text>
     </g>
    </g>
   </g>
  </g>
  <g transform="translate(1086,80)">
   <path d="M0,0H48V640H0Z" style="fill: none; stroke: black; stroke-width: 1;"></path>
   <path d="M0,608H48V640H0Z" style="fill: #1652cd;"></path>
   <path d="M0,576H48V609H0Z" style="fill: #1652cd;"></path>
   <path d="M0,544H48V577H0Z" style="fill: #1064dc;"></path>
   <path d="M0,512H48V545H0Z" style="fill: #1272d9;"></path>
   <path d="M0,480H48V513H0Z" style="fill: #1481d6;"></path>
   <path d="M0,448H48V481H0Z" style="fill: #0e8fd1;"></path>
   <path d="M0,416H48V449H0Z" style="fill: #099dcc;"></path>
   <path d="M0,384H48V417H0Z" style="fill: #0da7c3;"></path>
   <path d="M0,352H48V385H0Z" style="fill: #1eafb3;"></path>
   <path d="M0,320H48V353H0Z" style="fill: #2eb7a4;"></path>
   <path d="M0,288H48V321H0Z" style="fill: #52ba92;"></path>
   <path d="M0,256H48V289H0Z" style="fill: #74bd81;"></path>
   <path d="M0,224H48V257H0Z" style="fill: #95be71;"></path>
   <path d="M0,192H48V225H0Z" style="fill: #b3bd65;"></path>
   <path d="M0,160H48V193H0Z" style="fill: #d1bb59;"></path>
   <path d="M0,128H48V161H0Z" style="fill: #e2c04b;"></path>
   <path d="M0,96H48V129H0Z" style="fill: #f4c63b;"></path>
   <path d="M0,64H48V97H0Z" style="fill: #fdd22b;"></path>
   <path d="M0,32H48V65H0Z" style="fill: #fbe61d;"></path>
   <path d="M0,0H48V33H0Z" style="fill: #f9f90f;"></path>
   <g transform="translate(48)">
    <path d="M0,0v640M0,614h-33m33,-71h-33m33,-72h-33m33,-71h-33m33,-71h-33m33,-71h-33m33,-72h-33m33,-71h-33m33,-71h-33" style="stroke: black; stroke-width: 1;"></path>
    <g font-family="Arial" font-size="28" space="preserve" fill="black" text-anchor="start">
     <text dy=".4em" transform="translate(4,614)">
      0.1
     </text>
     <text dy=".4em" transform="translate(4,543)">
      0.2
     </text>
     <text dy=".4em" transform="translate(4,471)">
      0.3
     </text>
     <text dy=".4em" transform="translate(4,400)">
      0.4
     </text>
     <text dy=".4em" transform="translate(4,329)">
      0.5
     </text>
     <text dy=".4em" transform="translate(4,258)">
      0.6
     </text>
     <text dy=".4em" transform="translate(4,186)">
      0.7
     </text>
     <text dy=".4em" transform="translate(4,115)">
      0.8
     </text>
     <text dy=".4em" transform="translate(4,44)">
      0.9
     </text>
    </g>
   </g>
  </g>
  <g transform="translate(120,4)" font-family="Arial" font-size="40" space="preserve">
   <text fill="black" text-anchor="middle" dy=".8em" transform="translate(480)">
    my 2D efficiency
   </text>
  </g>
 </g>
</svg>

<svg xmlns="http://www.w3.org/2000/svg" viewBox="0 0 1200 800" preserveAspectRatio="none" width="1200" height="800">
 <path d="M0,0H1200V800H0Z" style="fill: white;"></path>
 <g>
  <g transform="translate(120,80)">
   <path d="M0,0H960V640H0Z" style="fill: white; stroke: black; stroke-width: 1;"></path>
   <svg x="0" y="0" overflow="hidden" width="960" height="640" viewBox="0 0 960 640">
    <g>
     <path fill="#263ea8" d="M0,0h96v128h-96zM0,512h96v128h-96zM96,0h96v128h-96zm96,0h96v128h-96zm0,512h96v128h-96zM768,0h96v128h-96zm0,512h96v128h-96zM864,0h96v128h-96zm0,512h96v128h-96z"></path>
     <path fill="#1652cd" d="M96,512h96v128h-96zM384,0h96v128h-96zm96,0h96v128h-96zm0,512h96v128h-96zm96,0h96v128h-96zM672,0h96v128h-96zm0,512h96v128h-96z"></path>
     <path fill="#1064dc" d="M288,0h96v128h-96zm0,512h96v128h-96zm96,0h96v128h-96zM576,0h96v128h-96z"></path>
     <path fill="#1481d6" d="M0,128h96v128h-96z"></path>
     <path fill="#0e8fd1" d="M0,384h96v128h-96zM864,128h96v128h-96z"></path>
     <path fill="#099dcc" d="M96,128h96v128h-96zm0,256h96v128h-96zm768,0h96v128h-96z"></path>
     <path fill="#0da7c3" d="M768,384h96v128h-96z"></path>
     <path fill="#1eafb3" d="M192,384h96v128h-96zM768,128h96v128h-96z"></path>
     <path fill="#2eb7a4" d="M0,256h96v128h-96z"></path>
     <path fill="#52ba92" d="M672,128h96v128h-96zm0,256h96v128h-96z"></path>
     <path fill="#74bd81" d="M192,128h96v128h-96zm96,0h96v128h-96zm96,0h96v128h-96zm0,256h96v128h-96zM480,128h96v128h-96zm96,0h96v128h-96zm0,256h96v128h-96zM864,256h96v128h-96z"></path>
     <path fill="#95be71" d="M288,384h96v128h-96zm192,0h96v128h-96zM768,256h96v128h-96z"></path>
     <path fill="#b3bd65" d="M96,256h96v128h-96z"></path>
     <path fill="#f4c63b" d="M192,256h96v128h-96zm480,0h96v128h-96z"></path>
     <path fill="#fdd22b" d="M576,256h96v128h-96z"></path>
     <path fill="#fbe61d" d="M288,256h96v128h-96z"></path>
     <path fill="#f9f90f" d="M384,256h96v128h-96zm96,0h96v128h-96z"></path>
    </g>
   </svg>
   <g>
    <g transform="translate(0,640)">
     <path d="M0,0h960M0,-24V0M19,-12V0M38,-12V0M58,-12V0M77,-12V0M96,-24V0M115,-12V0M134,-12V0M154,-12V0M173,-12V0M192,-24V0M211,-12V0M230,-12V0M250,-12V0M269,-12V0M288,-24V0M307,-12V0M326,-12V0M346,-12V0M365,-12V0M384,-24V0M403,-12V0M422,-12V0M442,-12V0M461,-12V0M480,-24V0M499,-12V0M518,-12V0M538,-12V0M557,-12V0M576,-24V0M595,-12V0M614,-12V0M634,-12V0M653,-12V0M672,-24V0M691,-12V0M710,-12V0M730,-12V0M749,-12V0M768,-24V0M787,-12V0M806,-12V0M826,-12V0M845,-12V0M864,-24V0M883,-12V0M902,-12V0M922,-12V0M941,-12V0M960,-24V0" style="stroke: black; stroke-width: 1;"></path>
     <g font-family="Arial" font-size="28" space="preserve" fill="black" text-anchor="middle">
      <text dy=".8em" transform="translate(0,6)">
       0
      </text>
      <text dy=".8em" transform="translate(96,6)">
       1
      </text>
      <text dy=".8em" transform="translate(192,6)">
       2
      </text>
      <text dy=".8em" transform="translate(288,6)">
       3
      </text>
      <text dy=".8em" transform="translate(384,6)">
       4
      </text>
      <text dy=".8em" transform="translate(480,6)">
       5
      </text>
      <text dy=".8em" transform="translate(576,6)">
       6
      </text>
      <text dy=".8em" transform="translate(672,6)">
       7
      </text>
      <text dy=".8em" transform="translate(768,6)">
       8
      </text>
      <text dy=".8em" transform="translate(864,6)">
       9
      </text>
      <text dy=".8em" transform="translate(960,6)">
       10
      </text>
     </g>
     <g font-family="Arial" font-size="28" space="preserve" transform="translate(960,45)">
      <text fill="black" text-anchor="end" dy=".4em">
       x
      </text>
     </g>
    </g>
    <g>
     <path d="M0,0v640M36,640H0M18,627H0M18,614H0M18,602H0M18,589H0M36,576H0M18,563H0M18,550H0M18,538H0M18,525H0M36,512H0M18,499H0M18,486H0M18,474H0M18,461H0M36,448H0M18,435H0M18,422H0M18,410H0M18,397H0M36,384H0M18,371H0M18,358H0M18,346H0M18,333H0M36,320H0M18,307H0M18,294H0M18,282H0M18,269H0M36,256H0M18,243H0M18,230H0M18,218H0M18,205H0M36,192H0M18,179H0M18,166H0M18,154H0M18,141H0M36,128H0M18,115H0M18,102H0M18,90H0M18,77H0M36,64H0M18,51H0M18,38H0M18,26H0M18,13H0M36,0H0" style="stroke: black; stroke-width: 1;"></path>
     <g font-family="Arial" font-size="28" space="preserve" fill="black" text-anchor="end">
      <text dy=".4em" transform="translate(-4,640)">
       0
      </text>
      <text dy=".4em" transform="translate(-4,576)">
       0.5
      </text>
      <text dy=".4em" transform="translate(-4,512)">
       1
      </text>
      <text dy=".4em" transform="translate(-4,448)">
       1.5
      </text>
      <text dy=".4em" transform="translate(-4,384)">
       2
      </text>
      <text dy=".4em" transform="translate(-4,320)">
       2.5
      </text>
      <text dy=".4em" transform="translate(-4,256)">
       3
      </text>
      <text dy=".4em" transform="translate(-4,192)">
       3.5
      </text>
      <text dy=".4em" transform="translate(-4,128)">
       4
      </text>
      <text dy=".4em" transform="translate(-4,64)">
       4.5
      </text>
      <text dy=".4em" transform="translate(-4)">
       5
      </text>
     </g>
     <g font-family="Arial" font-size="28" space="preserve" transform="translate(-72,0)">
      <text fill="black" text-anchor="end" dy=".4em" transform=" rotate(270)">
       y
      </text>
     </g>
    </g>
   </g>
  </g>
  <g transform="translate(1086,80)">
   <path d="M0,0H48V640H0Z" style="fill: none; stroke: black; stroke-width: 1;"></path>
   <path d="M0,608H48V640H0Z" style="fill: #1652cd;"></path>
   <path d="M0,576H48V609H0Z" style="fill: #1652cd;"></path>
   <path d="M0,544H48V577H0Z" style="fill: #1064dc;"></path>
   <path d="M0,512H48V545H0Z" style="fill: #1272d9;"></path>
   <path d="M0,480H48V513H0Z" style="fill: #1481d6;"></path>
   <path d="M0,448H48V481H0Z" style="fill: #0e8fd1;"></path>
   <path d="M0,416H48V449H0Z" style="fill: #099dcc;"></path>
   <path d="M0,384H48V417H0Z" style="fill: #0da7c3;"></path>
   <path d="M0,352H48V385H0Z" style="fill: #1eafb3;"></path>
   <path d="M0,320H48V353H0Z" style="fill: #2eb7a4;"></path>
   <path d="M0,288H48V321H0Z" style="fill: #52ba92;"></path>
   <path d="M0,256H48V289H0Z" style="fill: #74bd81;"></path>
   <path d="M0,224H48V257H0Z" style="fill: #95be71;"></path>
   <path d="M0,192H48V225H0Z" style="fill: #b3bd65;"></path>
   <path d="M0,160H48V193H0Z" style="fill: #d1bb59;"></path>
   <path d="M0,128H48V161H0Z" style="fill: #e2c04b;"></path>
   <path d="M0,96H48V129H0Z" style="fill: #f4c63b;"></path>
   <path d="M0,64H48V97H0Z" style="fill: #fdd22b;"></path>
   <path d="M0,32H48V65H0Z" style="fill: #fbe61d;"></path>
   <path d="M0,0H48V33H0Z" style="fill: #f9f90f;"></path>
   <g transform="translate(48)">
    <path d="M0,0v640M0,614H-33M0,543H-33M0,471H-33M0,400H-33M0,329H-33M0,258H-33M0,186H-33M0,115H-33M0,44H-33" style="stroke: black; stroke-width: 1;"></path>
    <g font-family="Arial" font-size="28" space="preserve" fill="black" text-anchor="start">
     <text dy=".4em" transform="translate(4,614)">
      0.1
     </text>
     <text dy=".4em" transform="translate(4,543)">
      0.2
     </text>
     <text dy=".4em" transform="translate(4,471)">
      0.3
     </text>
     <text dy=".4em" transform="translate(4,400)">
      0.4
     </text>
     <text dy=".4em" transform="translate(4,329)">
      0.5
     </text>
     <text dy=".4em" transform="translate(4,258)">
      0.6
     </text>
     <text dy=".4em" transform="translate(4,186)">
      0.7
     </text>
     <text dy=".4em" transform="translate(4,115)">
      0.8
     </text>
     <text dy=".4em" transform="translate(4,44)">
      0.9
     </text>
    </g>
   </g>
  </g>
  <g transform="translate(120,4)" font-family="Arial" font-size="40" space="preserve">
   <text fill="black" text-anchor="middle" dy=".8em" transform="translate(480)">
    my 2D efficiency
   </text>
  </g>
 </g>
</svg>
